X:2
T:XYZ
M:4/4
L:1/8
K:Am
 |: E2 | A2 cA BcdB | e2 ge dBGB | c2 ec 2B dB | A2 cA ^G2 fe | A2 cA BcdB | e2 ge dBGB | cBcA EA^GB | A2 A2 A2 :| |: e2 | a^gab a2 ed | ^cAe^c a2 ef | gdBd gbag | f2 d2 d2 ed | c2 Ac B2 GB | c2 Ac B2 GB | cBcA EA^GB | A2 A2 A2 :|
